projects/flag-game/flags/Zimbabwe.svg

<svg viewBox="0 0 1000 502" xmlns="http://www.w3.org/2000/svg"><g fill-rule="evenodd"><path d="m0 .992188h999.253906v499.625h-999.253906zm0 0" fill="#319208"/><path d="m0 72.371094h999.253906v356.875h-999.253906zm0 0" fill="#ffd200"/><path d="m0 143.742188h999.253906v214.125h-999.253906zm0 0" fill="#de2010"/><path d="m0 215.117188h999.253906v71.375h-999.253906zm0 0"/><path d="m18.171875.992188 333.085937 249.816406-333.085937 249.808594h-18.171875v-499.625zm0 0"/><path d="m0 .992188 333.085938 249.816406-333.085938 249.808594zm0 0" fill="#fff"/><path d="m134.820312 123.914062-56.160156 113.789063 85.34375 42.117187zm0 0" fill="#de2010"/><path d="m134.820312 123.914062 56.15625 113.789063-85.339843 42.117187zm0 0" fill="#de2010"/><path d="m134.820312 123.914062-42.523437 119.554688 89.664063 31.894531zm0 0" fill="#de2010"/><path d="m134.820312 123.914062 42.523438 119.554688-89.664062 31.894531zm0 0" fill="#de2010"/><path d="m255.5 211.59375-125.570312-18.246094-13.6875 94.179688zm0 0" fill="#de2010"/><path d="m14.140625 211.59375 125.570313-18.246094 13.6875 94.179688zm0 0" fill="#de2010"/><path d="m255.5 211.59375-126.839844-3.5-2.625 95.128906zm0 0" fill="#de2010"/><path d="m14.140625 211.59375 126.84375-3.5 2.621094 95.128906zm0 0" fill="#de2010"/><path d="m134.820312 141.761719-44.746093 99.441406 49.722656 22.375zm0 0" fill="#de2010"/><path d="m134.820312 141.761719 44.742188 99.441406-49.722656 22.375zm0 0" fill="#de2010"/><path d="m198.914062 339.023438-22.253906-106.75-53.375 11.128906zm0 0" fill="#de2010"/><path d="m198.914062 339.023438-94.644531-54.148438 27.070313-47.324219zm0 0" fill="#de2010"/><path d="m70.722656 339.023438 94.652344-54.148438-27.078125-47.324219zm0 0" fill="#de2010"/><path d="m70.722656 339.023438 22.257813-106.75 53.371093 11.128906zm0 0" fill="#de2010"/><path d="m113.546875 219.519531c7.835937 17.066407 9.796875 18.1875 29.386719 24.902344 19.589844 6.71875 74.933594 13.085937 80.390625 13.71875-3.566407-3.570313-65.90625-49.75-78.710938-58.984375-12.804687-9.238281-16.371093-13.433594-16.371093-13.433594s-11.542969-20.78125-15.53125-26.867187c-3.988282-6.085938-11.335938-14.691407-20.992188-14.691407-9.652344 0-15.535156 5.667969-18.332031 15.738282-1.539063.421875-9.792969 5.460937-9.515625 10.636718 2.378906-.28125 17.351562-4.476562 22.53125 12.453126 5.175781 16.933593 5.457031 44.636718.140625 58.351562-5.320313 13.71875-13.578125 24.074219-13.578125 36.105469 0 1.679687 1.125 5.039062 3.921875 5.039062.976562 5.316407 8.8125 43.238281 8.8125 43.238281h111.671875l17.734375-68.566406zm0 0" fill="#ffc618"/></g><path d="m113.546875 219.519531c7.835937 17.066407 9.796875 18.1875 29.386719 24.902344 19.589844 6.71875 74.933594 13.085937 80.390625 13.71875-3.566407-3.570313-65.90625-49.75-78.710938-58.984375-12.804687-9.238281-16.371093-13.433594-16.371093-13.433594s-11.542969-20.78125-15.53125-26.867187c-3.988282-6.085938-11.335938-14.691407-20.992188-14.691407-9.652344 0-15.535156 5.667969-18.332031 15.738282-1.539063.421875-9.792969 5.460937-9.515625 10.636718 2.378906-.28125 17.351562-4.476562 22.53125 12.453126 5.175781 16.933593 5.457031 44.636718.140625 58.351562-5.320313 13.71875-13.578125 24.074219-13.578125 36.105469 0 1.679687 1.125 5.039062 3.921875 5.039062.976562 5.316407 8.8125 43.238281 8.8125 43.238281h111.671875l17.734375-68.566406" fill="none" stroke="#000" stroke-width=".839605"/><path d="m76.886719 282.488281s23.789062-1.398437 30.222656-1.398437c6.4375 0 66.359375.074218 99.785156 7.800781" fill="none" stroke="#000" stroke-width=".839605"/><path d="m85.285156 282.011719s-2.382812-2.882813-.84375-8.617188c1.539063-5.742187 18.332032-20.574219 18.332032-41.5625" fill="none" stroke="#000" stroke-width=".839605"/><path d="m99.695312 281.089844s-1.960937-9.375 19.453126-17.355469c6.015624-1.820313 23.222656-11.476563 23.785156-19.3125" fill="none" stroke="#000" stroke-width=".839605"/><path d="m116.867188 264.628906s52.515624.226563 94.074218 8.625" fill="none" stroke="#000" stroke-width=".839605"/><path d="m130.035156 258.359375s18.039063.617187 20.980469-.21875c2.941406-.84375 8.140625-3.027344 10.210937-9.171875" fill="none" stroke="#000" stroke-width=".839605"/><path d="m140.730469 258.578125s9.652343-5.023437 11.539062-11.546875" fill="none" stroke="#000" stroke-width=".839605"/><path d="m111.585938 325.726562s-4.121094-28.613281-4.964844-44.636718l10.773437 10.285156 11.402344-9.972656 9.800781 10.460937 11.332032-9.617187 9.796874 11.015625 11.21875-9.542969 8.929688 10.382812 11.191406-8.09375 13.308594 12.648438" fill="none" stroke="#000" stroke-width=".839605"/><path d="m202.035156 307.6875c-39.972656-5.726562-93.464844-5.351562-93.464844-5.351562" fill="none" stroke="#000" stroke-width=".839605"/><path d="m89.988281 203.429688s32.511719-15.539063 38.253907-17.707032" fill="none" stroke="#000" stroke-width=".839605"/><path d="m107.511719 292.425781 10.929687 9.945313 9.878906-9.871094 9.984376 10.300781 10.785156-9.539062 9.933594 10.4375 11.195312-9.246094 9.152344 10.683594 11.140625-8.515625 11.710937 10.34375" fill="none" stroke="#000" stroke-width=".839606"/><path d="m142.867188 273.53125c0 2.398438-1.945313 4.339844-4.339844 4.339844-2.394532 0-4.339844-1.941406-4.339844-4.339844 0-2.394531 1.945312-4.335938 4.339844-4.335938 2.394531 0 4.339844 1.941407 4.339844 4.335938zm0 0" fill="none" stroke="#000" stroke-width=".839606"/><path d="m161.175781 274.757812c0 2.394532-1.9375 4.34375-4.335937 4.34375-2.394532 0-4.335938-1.949218-4.335938-4.34375 0-2.394531 1.941406-4.335937 4.335938-4.335937 2.398437 0 4.335937 1.941406 4.335937 4.335937zm0 0" fill="none" stroke="#000" stroke-width=".839606"/><path d="m92.03125 157.59375c0 1.855469-1.5 3.359375-3.355469 3.359375-1.859375 0-3.355469-1.503906-3.355469-3.359375 0-1.851562 1.496094-3.359375 3.355469-3.359375 1.855469 0 3.355469 1.507813 3.355469 3.359375zm0 0" fill="none" stroke="#000" stroke-width=".839606"/></svg>

<?xml version="1.0" encoding="UTF-8"?>
<svg xmlns="http://www.w3.org/2000/svg" xmlns:xlink="http://www.w3.org/1999/xlink" viewBox="0 0 1000 502" version="1.1">
<g id="surface1324">
<path style=" stroke:none;fill-rule:evenodd;fill:rgb(19.215393%,57.254028%,3.137207%);fill-opacity:1;" d="M 0 0.992188 L 999.253906 0.992188 L 999.253906 500.617188 L 0 500.617188 Z M 0 0.992188 "/>
<path style=" stroke:none;fill-rule:evenodd;fill:rgb(99.998474%,82.351685%,0%);fill-opacity:1;" d="M 0 72.371094 L 999.253906 72.371094 L 999.253906 429.246094 L 0 429.246094 Z M 0 72.371094 "/>
<path style=" stroke:none;fill-rule:evenodd;fill:rgb(87.057495%,12.548828%,6.274414%);fill-opacity:1;" d="M 0 143.742188 L 999.253906 143.742188 L 999.253906 357.867188 L 0 357.867188 Z M 0 143.742188 "/>
<path style=" stroke:none;fill-rule:evenodd;fill:rgb(0%,0%,0%);fill-opacity:1;" d="M 0 215.117188 L 999.253906 215.117188 L 999.253906 286.492188 L 0 286.492188 Z M 0 215.117188 "/>
<path style=" stroke:none;fill-rule:evenodd;fill:rgb(0%,0%,0%);fill-opacity:1;" d="M 18.171875 0.992188 L 351.257812 250.808594 L 18.171875 500.617188 L 0 500.617188 L 0 0.992188 Z M 18.171875 0.992188 "/>
<path style=" stroke:none;fill-rule:evenodd;fill:rgb(99.998474%,99.998474%,99.998474%);fill-opacity:1;" d="M 0 0.992188 L 333.085938 250.808594 L 0 500.617188 Z M 0 0.992188 "/>
<path style=" stroke:none;fill-rule:evenodd;fill:rgb(87.057495%,12.548828%,6.274414%);fill-opacity:1;" d="M 134.820312 123.914062 L 78.660156 237.703125 L 164.003906 279.820312 Z M 134.820312 123.914062 "/>
<path style=" stroke:none;fill-rule:evenodd;fill:rgb(87.057495%,12.548828%,6.274414%);fill-opacity:1;" d="M 134.820312 123.914062 L 190.976562 237.703125 L 105.636719 279.820312 Z M 134.820312 123.914062 "/>
<path style=" stroke:none;fill-rule:evenodd;fill:rgb(87.057495%,12.548828%,6.274414%);fill-opacity:1;" d="M 134.820312 123.914062 L 92.296875 243.46875 L 181.960938 275.363281 Z M 134.820312 123.914062 "/>
<path style=" stroke:none;fill-rule:evenodd;fill:rgb(87.057495%,12.548828%,6.274414%);fill-opacity:1;" d="M 134.820312 123.914062 L 177.34375 243.46875 L 87.679688 275.363281 Z M 134.820312 123.914062 "/>
<path style=" stroke:none;fill-rule:evenodd;fill:rgb(87.057495%,12.548828%,6.274414%);fill-opacity:1;" d="M 255.5 211.59375 L 129.929688 193.347656 L 116.242188 287.527344 Z M 255.5 211.59375 "/>
<path style=" stroke:none;fill-rule:evenodd;fill:rgb(87.057495%,12.548828%,6.274414%);fill-opacity:1;" d="M 14.140625 211.59375 L 139.710938 193.347656 L 153.398438 287.527344 Z M 14.140625 211.59375 "/>
<path style=" stroke:none;fill-rule:evenodd;fill:rgb(87.057495%,12.548828%,6.274414%);fill-opacity:1;" d="M 255.5 211.59375 L 128.660156 208.09375 L 126.035156 303.222656 Z M 255.5 211.59375 "/>
<path style=" stroke:none;fill-rule:evenodd;fill:rgb(87.057495%,12.548828%,6.274414%);fill-opacity:1;" d="M 14.140625 211.59375 L 140.984375 208.09375 L 143.605469 303.222656 Z M 14.140625 211.59375 "/>
<path style=" stroke:none;fill-rule:evenodd;fill:rgb(87.057495%,12.548828%,6.274414%);fill-opacity:1;" d="M 134.820312 141.761719 L 90.074219 241.203125 L 139.796875 263.578125 Z M 134.820312 141.761719 "/>
<path style=" stroke:none;fill-rule:evenodd;fill:rgb(87.057495%,12.548828%,6.274414%);fill-opacity:1;" d="M 134.820312 141.761719 L 179.5625 241.203125 L 129.839844 263.578125 Z M 134.820312 141.761719 "/>
<path style=" stroke:none;fill-rule:evenodd;fill:rgb(87.057495%,12.548828%,6.274414%);fill-opacity:1;" d="M 198.914062 339.023438 L 176.660156 232.273438 L 123.285156 243.402344 Z M 198.914062 339.023438 "/>
<path style=" stroke:none;fill-rule:evenodd;fill:rgb(87.057495%,12.548828%,6.274414%);fill-opacity:1;" d="M 198.914062 339.023438 L 104.269531 284.875 L 131.339844 237.550781 Z M 198.914062 339.023438 "/>
<path style=" stroke:none;fill-rule:evenodd;fill:rgb(87.057495%,12.548828%,6.274414%);fill-opacity:1;" d="M 70.722656 339.023438 L 165.375 284.875 L 138.296875 237.550781 Z M 70.722656 339.023438 "/>
<path style=" stroke:none;fill-rule:evenodd;fill:rgb(87.057495%,12.548828%,6.274414%);fill-opacity:1;" d="M 70.722656 339.023438 L 92.980469 232.273438 L 146.351562 243.402344 Z M 70.722656 339.023438 "/>
<path style=" stroke:none;fill-rule:evenodd;fill:rgb(99.998474%,77.645874%,9.411621%);fill-opacity:1;" d="M 113.546875 219.519531 C 121.382812 236.585938 123.34375 237.707031 142.933594 244.421875 C 162.523438 251.140625 217.867188 257.507812 223.324219 258.140625 C 219.757812 254.570312 157.417969 208.390625 144.613281 199.15625 C 131.808594 189.917969 128.242188 185.722656 128.242188 185.722656 C 128.242188 185.722656 116.699219 164.941406 112.710938 158.855469 C 108.722656 152.769531 101.375 144.164062 91.71875 144.164062 C 82.066406 144.164062 76.183594 149.832031 73.386719 159.902344 C 71.847656 160.324219 63.59375 165.363281 63.871094 170.539062 C 66.25 170.257812 81.222656 166.0625 86.402344 182.992188 C 91.578125 199.925781 91.859375 227.628906 86.542969 241.34375 C 81.222656 255.0625 72.964844 265.417969 72.964844 277.449219 C 72.964844 279.128906 74.089844 282.488281 76.886719 282.488281 C 77.863281 287.804688 85.699219 325.726562 85.699219 325.726562 L 197.371094 325.726562 L 215.105469 257.160156 Z M 113.546875 219.519531 "/>
<path style="fill:none;stroke-width:0.839605;stroke-linecap:butt;stroke-linejoin:miter;stroke:rgb(0%,0%,0%);stroke-opacity:1;stroke-miterlimit:4;" d="M 113.546875 219.519531 C 121.382812 236.585938 123.34375 237.707031 142.933594 244.421875 C 162.523438 251.140625 217.867188 257.507812 223.324219 258.140625 C 219.757812 254.570312 157.417969 208.390625 144.613281 199.15625 C 131.808594 189.917969 128.242188 185.722656 128.242188 185.722656 C 128.242188 185.722656 116.699219 164.941406 112.710938 158.855469 C 108.722656 152.769531 101.375 144.164062 91.71875 144.164062 C 82.066406 144.164062 76.183594 149.832031 73.386719 159.902344 C 71.847656 160.324219 63.59375 165.363281 63.871094 170.539062 C 66.25 170.257812 81.222656 166.0625 86.402344 182.992188 C 91.578125 199.925781 91.859375 227.628906 86.542969 241.34375 C 81.222656 255.0625 72.964844 265.417969 72.964844 277.449219 C 72.964844 279.128906 74.089844 282.488281 76.886719 282.488281 C 77.863281 287.804688 85.699219 325.726562 85.699219 325.726562 L 197.371094 325.726562 L 215.105469 257.160156 "/>
<path style="fill:none;stroke-width:0.839605;stroke-linecap:butt;stroke-linejoin:miter;stroke:rgb(0%,0%,0%);stroke-opacity:1;stroke-miterlimit:4;" d="M 76.886719 282.488281 C 76.886719 282.488281 100.675781 281.089844 107.109375 281.089844 C 113.546875 281.089844 173.46875 281.164062 206.894531 288.890625 "/>
<path style="fill:none;stroke-width:0.839605;stroke-linecap:butt;stroke-linejoin:miter;stroke:rgb(0%,0%,0%);stroke-opacity:1;stroke-miterlimit:4;" d="M 85.285156 282.011719 C 85.285156 282.011719 82.902344 279.128906 84.441406 273.394531 C 85.980469 267.652344 102.773438 252.820312 102.773438 231.832031 "/>
<path style="fill:none;stroke-width:0.839605;stroke-linecap:butt;stroke-linejoin:miter;stroke:rgb(0%,0%,0%);stroke-opacity:1;stroke-miterlimit:4;" d="M 99.695312 281.089844 C 99.695312 281.089844 97.734375 271.714844 119.148438 263.734375 C 125.164062 261.914062 142.371094 252.257812 142.933594 244.421875 "/>
<path style="fill:none;stroke-width:0.839605;stroke-linecap:butt;stroke-linejoin:miter;stroke:rgb(0%,0%,0%);stroke-opacity:1;stroke-miterlimit:4;" d="M 116.867188 264.628906 C 116.867188 264.628906 169.382812 264.855469 210.941406 273.253906 "/>
<path style="fill:none;stroke-width:0.839605;stroke-linecap:butt;stroke-linejoin:miter;stroke:rgb(0%,0%,0%);stroke-opacity:1;stroke-miterlimit:4;" d="M 130.035156 258.359375 C 130.035156 258.359375 148.074219 258.976562 151.015625 258.140625 C 153.957031 257.296875 159.15625 255.113281 161.226562 248.96875 "/>
<path style="fill:none;stroke-width:0.839605;stroke-linecap:butt;stroke-linejoin:miter;stroke:rgb(0%,0%,0%);stroke-opacity:1;stroke-miterlimit:4;" d="M 140.730469 258.578125 C 140.730469 258.578125 150.382812 253.554688 152.269531 247.03125 "/>
<path style="fill:none;stroke-width:0.839605;stroke-linecap:butt;stroke-linejoin:miter;stroke:rgb(0%,0%,0%);stroke-opacity:1;stroke-miterlimit:4;" d="M 111.585938 325.726562 C 111.585938 325.726562 107.464844 297.113281 106.621094 281.089844 L 117.394531 291.375 L 128.796875 281.402344 L 138.597656 291.863281 L 149.929688 282.246094 L 159.726562 293.261719 L 170.945312 283.71875 L 179.875 294.101562 L 191.066406 286.007812 L 204.375 298.65625 "/>
<path style="fill:none;stroke-width:0.839605;stroke-linecap:butt;stroke-linejoin:miter;stroke:rgb(0%,0%,0%);stroke-opacity:1;stroke-miterlimit:4;" d="M 202.035156 307.6875 C 162.0625 301.960938 108.570312 302.335938 108.570312 302.335938 "/>
<path style="fill:none;stroke-width:0.839605;stroke-linecap:butt;stroke-linejoin:miter;stroke:rgb(0%,0%,0%);stroke-opacity:1;stroke-miterlimit:4;" d="M 89.988281 203.429688 C 89.988281 203.429688 122.5 187.890625 128.242188 185.722656 "/>
<path style="fill:none;stroke-width:0.839606;stroke-linecap:butt;stroke-linejoin:miter;stroke:rgb(0%,0%,0%);stroke-opacity:1;stroke-miterlimit:4;" d="M 107.511719 292.425781 L 118.441406 302.371094 L 128.320312 292.5 L 138.304688 302.800781 L 149.089844 293.261719 L 159.023438 303.699219 L 170.21875 294.453125 L 179.371094 305.136719 L 190.511719 296.621094 L 202.222656 306.964844 "/>
<path style="fill:none;stroke-width:0.839606;stroke-linecap:butt;stroke-linejoin:miter;stroke:rgb(0%,0%,0%);stroke-opacity:1;stroke-miterlimit:4;" d="M 142.867188 273.53125 C 142.867188 275.929688 140.921875 277.871094 138.527344 277.871094 C 136.132812 277.871094 134.1875 275.929688 134.1875 273.53125 C 134.1875 271.136719 136.132812 269.195312 138.527344 269.195312 C 140.921875 269.195312 142.867188 271.136719 142.867188 273.53125 Z M 142.867188 273.53125 "/>
<path style="fill:none;stroke-width:0.839606;stroke-linecap:butt;stroke-linejoin:miter;stroke:rgb(0%,0%,0%);stroke-opacity:1;stroke-miterlimit:4;" d="M 161.175781 274.757812 C 161.175781 277.152344 159.238281 279.101562 156.839844 279.101562 C 154.445312 279.101562 152.503906 277.152344 152.503906 274.757812 C 152.503906 272.363281 154.445312 270.421875 156.839844 270.421875 C 159.238281 270.421875 161.175781 272.363281 161.175781 274.757812 Z M 161.175781 274.757812 "/>
<path style="fill:none;stroke-width:0.839606;stroke-linecap:butt;stroke-linejoin:miter;stroke:rgb(0%,0%,0%);stroke-opacity:1;stroke-miterlimit:4;" d="M 92.03125 157.59375 C 92.03125 159.449219 90.53125 160.953125 88.675781 160.953125 C 86.816406 160.953125 85.320312 159.449219 85.320312 157.59375 C 85.320312 155.742188 86.816406 154.234375 88.675781 154.234375 C 90.53125 154.234375 92.03125 155.742188 92.03125 157.59375 Z M 92.03125 157.59375 "/>
</g>
</svg>
